X: 218
T: Zou xikou
%%abc-version 2.0
%%abcx-abcm2ps-target-version 5.9.1 (29 Sep 2008)
%%abc-creator hum2abc beta
%%abcx-conversion-date 2013/10/02 07:52:29
%%abc-edited-by Helmut Schaffrath
%%humdrum-veritas 1771254205
%%humdrum-veritas-data 471580251
%%continueall 1
%%barnumbers 0
L: 1/16
M: 2/4
K: C
d2 d d c d g2 [I:setbarnb 1]| 
e2> d2 c2 d2 | 
g2 g e e d c d | 
G2> A2 F2 D2 | 
A2d4g2 | 
e2 d e2< G2 A | 
c c2 d A G F E | 
D8 |]  



